packages/icons/raw/imported/GenericUser.svg

<svg width="32" height="32" viewBox="0 0 32 32" fill="none" xmlns="http://www.w3.org/2000/svg">
<path d="M24.0057 23.6586L24.2695 24.0833L24.0057 23.6586ZM7.99277 23.6586L8.25661 23.2339H8.25661L7.99277 23.6586ZM7.23712 22.0563L7.73529 22.099L7.23712 22.0563ZM24.7613 22.0563L24.2632 22.099V22.099L24.7613 22.0563ZM24.0661 19.6031L23.61 19.8079L24.0661 19.6031ZM7.93238 19.6031L7.47626 19.3982L7.93238 19.6031ZM19.8838 10.8846C19.8838 13.03 18.1446 14.7692 15.9992 14.7692V15.7692C18.6969 15.7692 20.8838 13.5823 20.8838 10.8846H19.8838ZM15.9992 14.7692C13.8538 14.7692 12.1146 13.03 12.1146 10.8846H11.1146C11.1146 13.5823 13.3015 15.7692 15.9992 15.7692V14.7692ZM12.1146 10.8846C12.1146 8.7392 13.8538 7 15.9992 7V6C13.3015 6 11.1146 8.18692 11.1146 10.8846H12.1146ZM15.9992 7C18.1446 7 19.8838 8.7392 19.8838 10.8846H20.8838C20.8838 8.18692 18.6969 6 15.9992 6V7ZM23.7419 23.2339C22.6622 23.9046 20.2515 25 15.9992 25V26C20.4335 26 23.0276 24.8548 24.2695 24.0833L23.7419 23.2339ZM15.9992 25C11.7469 25 9.33632 23.9046 8.25661 23.2339L7.72893 24.0833C8.97083 24.8548 11.5649 26 15.9992 26V25ZM6.73895 22.0135C6.66991 22.818 7.00436 23.6332 7.72893 24.0833L8.25661 23.2339C7.89483 23.0091 7.69385 22.5818 7.73529 22.099L6.73895 22.0135ZM24.2632 22.099C24.3046 22.5818 24.1036 23.0091 23.7419 23.2339L24.2695 24.0833C24.9941 23.6332 25.3286 22.818 25.2595 22.0135L24.2632 22.099ZM23.61 19.8079C23.9115 20.4793 24.1945 21.299 24.2632 22.099L25.2595 22.0135C25.1773 21.0556 24.8461 20.1195 24.5222 19.3982L23.61 19.8079ZM7.73529 22.099C7.80395 21.299 8.08697 20.4793 8.38851 19.8079L7.47626 19.3982C7.15239 20.1195 6.82117 21.0556 6.73895 22.0135L7.73529 22.099ZM21.7029 17.6923H10.2956V18.6923H21.7029V17.6923ZM8.38851 19.8079C8.70216 19.1094 9.44724 18.6923 10.2956 18.6923V17.6923C9.13949 17.6923 7.98375 18.2681 7.47626 19.3982L8.38851 19.8079ZM24.5222 19.3982C24.0147 18.2681 22.859 17.6923 21.7029 17.6923V18.6923C22.5512 18.6923 23.2963 19.1094 23.61 19.8079L24.5222 19.3982Z" fill="black"/>
</svg>

<svg width="32" height="32" fill="none" xmlns="http://www.w3.org/2000/svg"><path d="m24.006 23.659.264.424-.264-.424Zm-16.013 0 .264-.425-.264.425Zm-.756-1.603.498.043-.498-.043Zm17.524 0-.498.043.498-.043Zm-.695-2.453-.456.205.456-.205Zm-16.134 0-.456-.205.456.205Zm11.952-8.718a3.885 3.885 0 0 1-3.885 3.884v1a4.885 4.885 0 0 0 4.885-4.884h-1Zm-3.885 3.884a3.885 3.885 0 0 1-3.884-3.884h-1a4.885 4.885 0 0 0 4.884 4.884v-1Zm-3.884-3.884A3.885 3.885 0 0 1 15.999 7V6a4.885 4.885 0 0 0-4.884 4.885h1ZM15.999 7a3.885 3.885 0 0 1 3.885 3.885h1A4.885 4.885 0 0 0 15.999 6v1Zm7.743 16.234c-1.08.67-3.49 1.766-7.743 1.766v1c4.434 0 7.029-1.145 8.27-1.917l-.527-.85ZM15.999 25c-4.252 0-6.663-1.095-7.742-1.766l-.528.85c1.242.77 3.836 1.916 8.27 1.916v-1Zm-9.26-2.986c-.07.804.265 1.62.99 2.07l.528-.85c-.362-.225-.563-.652-.522-1.135l-.996-.085Zm17.524.085c.042.483-.16.91-.521 1.135l.527.85c.725-.45 1.06-1.266.99-2.07l-.996.085Zm-.653-2.291c.302.671.585 1.491.653 2.291l.996-.085c-.082-.958-.413-1.895-.737-2.616l-.912.41ZM7.735 22.099c.069-.8.352-1.62.654-2.291l-.913-.41c-.324.721-.655 1.658-.737 2.616l.996.085Zm13.968-4.407H10.296v1h11.407v-1ZM8.389 19.808c.313-.699 1.058-1.116 1.907-1.116v-1c-1.157 0-2.312.576-2.82 1.706l.913.41Zm16.133-.41c-.507-1.13-1.663-1.706-2.82-1.706v1c.85 0 1.594.417 1.908 1.116l.912-.41Z" fill="#000"/></svg>
